Numix-Light/16/status/indicator-keyboard-De-3.svg

<?xml version="1.0" encoding="UTF-8" standalone="no"?>
<svg
   xmlns:dc="http://purl.org/dc/elements/1.1/"
   xmlns:cc="http://creativecommons.org/ns#"
   xmlns:rdf="http://www.w3.org/1999/02/22-rdf-syntax-ns#"
   xmlns:svg="http://www.w3.org/2000/svg"
   xmlns="http://www.w3.org/2000/svg"
   xmlns:sodipodi="http://sodipodi.sourceforge.net/DTD/sodipodi-0.dtd"
   xmlns:inkscape="http://www.inkscape.org/namespaces/inkscape"
   viewBox="0 0 16 16"
   id="svg2"
   version="1.1"
   inkscape:version="0.91 r13725"
   sodipodi:docname="indicator-keyboard-De-3.svg">
  <metadata
     id="metadata14">
    <rdf:RDF>
      <cc:Work
         rdf:about="">
        <dc:format>image/svg+xml</dc:format>
        <dc:type
           rdf:resource="http://purl.org/dc/dcmitype/StillImage" />
      </cc:Work>
    </rdf:RDF>
  </metadata>
  <defs
     id="defs12" />
  <sodipodi:namedview
     pagecolor="#ffffff"
     bordercolor="#666666"
     borderopacity="1"
     objecttolerance="10"
     gridtolerance="10"
     guidetolerance="10"
     inkscape:pageopacity="0"
     inkscape:pageshadow="2"
     inkscape:window-width="640"
     inkscape:window-height="480"
     id="namedview10"
     showgrid="false"
     inkscape:zoom="14.75"
     inkscape:cx="8"
     inkscape:cy="8"
     inkscape:window-x="65"
     inkscape:window-y="24"
     inkscape:window-maximized="0"
     inkscape:current-layer="svg2" />
  <path
     style="fill:#353535;fill-opacity:1"
     d="M 1.5996094 0 C 0.71320937 2.9605947e-16 0 0.71320937 0 1.5996094 L 0 14.400391 C 2.9605947e-16 15.286791 0.71320937 16 1.5996094 16 L 14.400391 16 C 15.286791 16 16 15.286791 16 14.400391 L 16 1.5996094 C 16 0.71320937 15.286791 0 14.400391 0 L 1.5996094 0 z M 2.890625 4.8046875 C 3.394625 4.8046875 3.8573438 4.8719062 4.2773438 5.0039062 C 4.6973438 5.1359063 5.0574219 5.3336562 5.3574219 5.5976562 C 5.6634219 5.8616562 5.9003594 6.1918906 6.0683594 6.5878906 C 6.2363594 6.9838906 6.3203125 7.4446562 6.3203125 7.9726562 C 6.3203125 8.5066563 6.2363594 8.9711875 6.0683594 9.3671875 C 5.9003594 9.7631875 5.6634219 10.093422 5.3574219 10.357422 C 5.0574219 10.621422 4.6973437 10.819172 4.2773438 10.951172 C 3.8573438 11.083172 3.394625 11.150391 2.890625 11.150391 C 2.638625 11.150391 2.3756094 11.135469 2.0996094 11.105469 C 1.8236094 11.081469 1.5810938 11.042281 1.3710938 10.988281 L 1.3710938 4.9765625 C 1.5810938 4.9165625 1.8236094 4.8736094 2.0996094 4.8496094 C 2.3756094 4.8196094 2.638625 4.8046875 2.890625 4.8046875 z M 2.9628906 5.3359375 C 2.6388906 5.3359375 2.4019531 5.3452812 2.2519531 5.3632812 C 2.1079531 5.3812812 2.0184219 5.3924375 1.9824219 5.3984375 L 1.9824219 10.556641 C 2.0184219 10.562641 2.1079531 10.573797 2.2519531 10.591797 C 2.4019531 10.609797 2.6388906 10.619141 2.9628906 10.619141 C 3.4128906 10.619141 3.8065781 10.559453 4.1425781 10.439453 C 4.4785781 10.313453 4.7602812 10.136203 4.9882812 9.9082031 C 5.2162812 9.6802031 5.3879531 9.4040781 5.5019531 9.0800781 C 5.6159531 8.7500781 5.671875 8.3806562 5.671875 7.9726562 C 5.671875 7.5646563 5.6159531 7.199 5.5019531 6.875 C 5.3879531 6.551 5.2162813 6.274875 4.9882812 6.046875 C 4.7602813 5.818875 4.4785781 5.6453906 4.1425781 5.5253906 C 3.8065781 5.3993906 3.4128906 5.3359375 2.9628906 5.3359375 z M 9.4003906 6.3359375 C 9.9703906 6.3359375 10.421812 6.5205781 10.757812 6.8925781 C 11.099813 7.2645781 11.271484 7.8373281 11.271484 8.6113281 C 11.271484 8.6593281 11.269672 8.7078594 11.263672 8.7558594 C 11.263672 8.8038594 11.259906 8.848625 11.253906 8.890625 L 7.9863281 8.890625 C 8.0043281 9.460625 8.1461563 9.8990779 8.4101562 10.205078 C 8.6741562 10.511078 9.0939219 10.664062 9.6699219 10.664062 C 9.9879218 10.664062 10.239781 10.634219 10.425781 10.574219 C 10.611781 10.514219 10.746078 10.463875 10.830078 10.421875 L 10.939453 10.925781 C 10.855453 10.973781 10.694938 11.029703 10.460938 11.095703 C 10.232938 11.161703 9.9643437 11.195312 9.6523438 11.195312 C 9.2443438 11.195312 8.8954219 11.135625 8.6074219 11.015625 C 8.3194219 10.895625 8.0824844 10.727719 7.8964844 10.511719 C 7.7104844 10.295719 7.5761875 10.040094 7.4921875 9.7460938 C 7.4081875 9.4460938 7.3652344 9.119625 7.3652344 8.765625 C 7.3652344 8.357625 7.4231094 8.003125 7.5371094 7.703125 C 7.6571094 7.397125 7.8100938 7.1415 7.9960938 6.9375 C 8.1880937 6.7335 8.4045312 6.5842813 8.6445312 6.4882812 C 8.8905313 6.3862812 9.1423906 6.3359375 9.4003906 6.3359375 z M 9.4082031 6.8574219 C 9.1982031 6.8574219 9.0097969 6.8984219 8.8417969 6.9824219 C 8.6797969 7.0664219 8.5361562 7.1802188 8.4101562 7.3242188 C 8.2901563 7.4622187 8.1930937 7.6245469 8.1210938 7.8105469 C 8.0550938 7.9965469 8.0159063 8.1924844 8.0039062 8.3964844 L 10.667969 8.3964844 C 10.655969 7.9104844 10.542172 7.5317187 10.326172 7.2617188 C 10.110172 6.9917187 9.8042031 6.8574219 9.4082031 6.8574219 z M 13.261719 8.7539062 C 13.464519 8.7539062 13.63695 8.7793781 13.78125 8.8300781 C 13.92945 8.8807781 14.052891 8.953275 14.150391 9.046875 C 14.247891 9.136575 14.320388 9.2463 14.367188 9.375 C 14.413987 9.4997999 14.4375 9.6350031 14.4375 9.7832031 C 14.4375 10.021103 14.372841 10.217041 14.244141 10.369141 C 14.119341 10.517341 13.956713 10.625106 13.757812 10.691406 C 13.867013 10.718706 13.972819 10.759859 14.074219 10.818359 C 14.179519 10.872959 14.273569 10.945456 14.355469 11.035156 C 14.437369 11.120956 14.503987 11.226762 14.554688 11.351562 C 14.605387 11.476362 14.628906 11.623316 14.628906 11.791016 C 14.628906 11.962616 14.599509 12.119372 14.537109 12.263672 C 14.478609 12.407972 14.388478 12.535331 14.267578 12.644531 C 14.150578 12.749831 13.999706 12.834084 13.816406 12.896484 C 13.633106 12.954984 13.419528 12.984375 13.173828 12.984375 C 13.045128 12.984375 12.925606 12.974578 12.816406 12.955078 C 12.711106 12.939478 12.617056 12.919884 12.535156 12.896484 C 12.453256 12.873084 12.382719 12.849572 12.324219 12.826172 C 12.269619 12.802772 12.228472 12.783178 12.201172 12.767578 L 12.300781 12.427734 C 12.324181 12.443334 12.363369 12.462928 12.417969 12.486328 C 12.472569 12.509728 12.537228 12.533241 12.611328 12.556641 C 12.689328 12.576141 12.775541 12.593775 12.869141 12.609375 C 12.966641 12.624975 13.072447 12.632813 13.185547 12.632812 C 13.556047 12.632812 13.820569 12.556397 13.980469 12.404297 C 14.140369 12.248297 14.220703 12.040597 14.220703 11.779297 C 14.220703 11.607697 14.187394 11.464663 14.121094 11.351562 C 14.058694 11.238462 13.970522 11.148331 13.857422 11.082031 C 13.748222 11.011831 13.618903 10.962847 13.470703 10.935547 C 13.326403 10.904347 13.173566 10.888672 13.009766 10.888672 L 12.951172 10.888672 L 12.951172 10.574219 L 13.085938 10.574219 C 13.191237 10.574219 13.29705 10.564422 13.40625 10.544922 C 13.51935 10.521522 13.621238 10.480375 13.710938 10.421875 C 13.804537 10.363375 13.880953 10.285 13.939453 10.1875 C 14.001853 10.09 14.033203 9.9646001 14.033203 9.8125 C 14.033203 9.6838 14.01165 9.5760281 13.96875 9.4863281 C 13.92585 9.3927281 13.867069 9.3182719 13.792969 9.2636719 C 13.722769 9.2090719 13.638516 9.1698844 13.541016 9.1464844 C 13.447416 9.1191844 13.349441 9.1054687 13.244141 9.1054688 C 13.033541 9.1054688 12.868953 9.1348594 12.751953 9.1933594 C 12.634953 9.2518594 12.538944 9.3067219 12.464844 9.3574219 L 12.300781 9.0585938 C 12.339781 9.0312937 12.388766 8.9999438 12.447266 8.9648438 C 12.509666 8.9297438 12.582162 8.8964344 12.664062 8.8652344 C 12.745963 8.8340344 12.836094 8.8085625 12.933594 8.7890625 C 13.034994 8.7656625 13.144719 8.7539062 13.261719 8.7539062 z "
     id="path4" />
</svg>

<svg xmlns="http://www.w3.org/2000/svg" viewBox="0 0 16 16">
 <path d="m 1.6 0 c -0.886 0 -1.6 0.713 -1.6 1.6 l 0 12.801 c 0 0.886 0.713 1.6 1.6 1.6 l 12.801 0 c 0.886 0 1.6 -0.713 1.6 -1.6 l 0 -12.801 c 0 -0.886 -0.713 -1.6 -1.6 -1.6 l -12.801 0 z m 1.291 4.805 c 0.504 0 0.967 0.067 1.387 0.199 c 0.42 0.132 0.78 0.33 1.08 0.594 c 0.306 0.264 0.543 0.594 0.711 0.99 c 0.168 0.396 0.252 0.857 0.252 1.385 c 0 0.534 -0.084 0.999 -0.252 1.395 c -0.168 0.396 -0.405 0.726 -0.711 0.99 c -0.3 0.264 -0.66 0.462 -1.08 0.594 c -0.42 0.132 -0.883 0.199 -1.387 0.199 c -0.252 0 -0.515 -0.015 -0.791 -0.045 c -0.276 -0.024 -0.519 -0.063 -0.729 -0.117 l 0 -6.01 c 0.21 -0.06 0.453 -0.103 0.729 -0.127 c 0.276 -0.03 0.539 -0.045 0.791 -0.045 z m 0.072 0.531 c -0.324 0 -0.561 0.009 -0.711 0.027 c -0.144 0.018 -0.234 0.029 -0.27 0.035 l 0 5.158 c 0.036 0.006 0.126 0.017 0.27 0.035 c 0.15 0.018 0.387 0.027 0.711 0.027 c 0.45 0 0.844 -0.06 1.18 -0.18 c 0.336 -0.126 0.618 -0.303 0.846 -0.531 c 0.228 -0.228 0.4 -0.504 0.514 -0.828 c 0.114 -0.33 0.17 -0.699 0.17 -1.107 c 0 -0.408 -0.056 -0.774 -0.17 -1.098 c -0.114 -0.324 -0.286 -0.6 -0.514 -0.828 c -0.228 -0.228 -0.51 -0.401 -0.846 -0.521 c -0.336 -0.126 -0.73 -0.189 -1.18 -0.189 z m 6.438 1 c 0.57 0 1.021 0.185 1.357 0.557 c 0.342 0.372 0.514 0.945 0.514 1.719 c 0 0.048 -0.002 0.097 -0.008 0.145 c 0 0.048 -0.004 0.093 -0.01 0.135 l -3.268 0 c 0.018 0.57 0.16 1.01 0.424 1.314 c 0.264 0.306 0.684 0.459 1.26 0.459 c 0.318 0 0.57 -0.03 0.756 -0.09 c 0.186 -0.06 0.32 -0.11 0.404 -0.152 l 0.109 0.504 c -0.084 0.048 -0.245 0.104 -0.479 0.17 c -0.228 0.066 -0.497 0.1 -0.809 0.1 c -0.408 0 -0.757 -0.06 -1.045 -0.18 c -0.288 -0.12 -0.525 -0.288 -0.711 -0.504 c -0.186 -0.216 -0.32 -0.472 -0.404 -0.766 c -0.084 -0.3 -0.127 -0.626 -0.127 -0.98 c 0 -0.408 0.058 -0.762 0.172 -1.063 c 0.12 -0.306 0.273 -0.562 0.459 -0.766 c 0.192 -0.204 0.408 -0.353 0.648 -0.449 c 0.246 -0.102 0.498 -0.152 0.756 -0.152 z m 0.008 0.521 c -0.21 0 -0.398 0.041 -0.566 0.125 c -0.162 0.084 -0.306 0.198 -0.432 0.342 c -0.12 0.138 -0.217 0.3 -0.289 0.486 c -0.066 0.186 -0.105 0.382 -0.117 0.586 l 2.664 0 c -0.012 -0.486 -0.126 -0.865 -0.342 -1.135 c -0.216 -0.27 -0.522 -0.404 -0.918 -0.404 z m 3.854 1.896 c 0.203 0 0.375 0.025 0.52 0.076 c 0.148 0.051 0.272 0.123 0.369 0.217 c 0.097 0.09 0.17 0.199 0.217 0.328 c 0.047 0.125 0.07 0.26 0.07 0.408 c 0 0.238 -0.065 0.434 -0.193 0.586 c -0.125 0.148 -0.287 0.256 -0.486 0.322 c 0.109 0.027 0.215 0.068 0.316 0.127 c 0.105 0.055 0.199 0.127 0.281 0.217 c 0.082 0.086 0.149 0.192 0.199 0.316 c 0.051 0.125 0.074 0.272 0.074 0.439 c 0 0.172 -0.029 0.328 -0.092 0.473 c -0.058 0.144 -0.149 0.272 -0.27 0.381 c -0.117 0.105 -0.268 0.19 -0.451 0.252 c -0.183 0.059 -0.397 0.088 -0.643 0.088 c -0.129 0 -0.248 -0.01 -0.357 -0.029 c -0.105 -0.016 -0.199 -0.035 -0.281 -0.059 c -0.082 -0.023 -0.152 -0.047 -0.211 -0.07 c -0.055 -0.023 -0.096 -0.043 -0.123 -0.059 l 0.1 -0.34 c 0.023 0.016 0.063 0.035 0.117 0.059 c 0.055 0.023 0.119 0.047 0.193 0.07 c 0.078 0.019 0.164 0.037 0.258 0.053 c 0.097 0.016 0.203 0.023 0.316 0.023 c 0.37 0 0.635 -0.076 0.795 -0.229 c 0.16 -0.156 0.24 -0.364 0.24 -0.625 c 0 -0.172 -0.033 -0.315 -0.1 -0.428 c -0.062 -0.113 -0.151 -0.203 -0.264 -0.27 c -0.109 -0.07 -0.239 -0.119 -0.387 -0.146 c -0.144 -0.031 -0.297 -0.047 -0.461 -0.047 l -0.059 0 l 0 -0.314 l 0.135 0 c 0.105 0 0.211 -0.01 0.32 -0.029 c 0.113 -0.023 0.215 -0.065 0.305 -0.123 c 0.094 -0.059 0.17 -0.137 0.229 -0.234 c 0.062 -0.098 0.094 -0.223 0.094 -0.375 c 0 -0.129 -0.022 -0.236 -0.064 -0.326 c -0.043 -0.094 -0.102 -0.168 -0.176 -0.223 c -0.07 -0.055 -0.154 -0.094 -0.252 -0.117 c -0.094 -0.027 -0.192 -0.041 -0.297 -0.041 c -0.211 0 -0.375 0.029 -0.492 0.088 c -0.117 0.059 -0.213 0.113 -0.287 0.164 l -0.164 -0.299 c 0.039 -0.027 0.088 -0.059 0.146 -0.094 c 0.062 -0.035 0.135 -0.068 0.217 -0.1 c 0.082 -0.031 0.172 -0.057 0.27 -0.076 c 0.101 -0.023 0.211 -0.035 0.328 -0.035 z" style="fill:#353535;fill-opacity:1"/>
</svg>
